X:1
T: Miss Olive Macpherson
C:Ewan Macpherson (nephew)
R:Jig
Q:180
K:D
M:6/8
L:1/16
e2|A2A2A2 c4A2|c2e2A2 c2A2A2|a4a2 g2e2d2|e2E2E2 E4e2|A2A2A2 c4A2|c2e2A2 c2A2A2|a4a2 g2e2d2|c2A2A2 A4e2|
a4a2 g2e2d2|c2e2d2 c2A2A2|a4a2 g2e2d2|e2E2E2 E4e2|a4a2 g2e2d2|c2e2d2 c2A2A2|a4a2 g2e2d2|c2A2A2 A4e2|
A2A2A2 c4A2|c2e2d2 c2A2A2|G2G2G2 B2G2B2|g4g2 B2A2G2|A2A2A2 c4A2|c2e2d2 c2A2A2|a4a2 g2e2d2|c2A2A2 A4e2|
a4a2 a4a2|g4g2 e2c2A2|a4a2 g2e2d2|c2B2B2 B4e2|a4a2 a4a2|g4g2 e2c2A2|a4a2 g2e2d2|c2A2A2 A4||
